src/components/Careers/Benefits/images/carbon-offsetting.svg

<svg xmlns="http://www.w3.org/2000/svg" width="36" height="79" fill="none" viewBox="0 0 36 79"><mask id="path-1-inside-1" fill="#fff"><path fill-rule="evenodd" d="M20.215 8.71784C18.7946 9.63441 17.6298 10.8961 16.8293 12.385L15.1616 15.487C14.2511 17.1805 14.407 19.2025 15.4657 20.718C15.597 20.9059 15.6788 21.1261 15.6788 21.3553V36.6764C15.6788 37.1865 14.9946 37.354 14.759 36.9016C14.0886 35.6141 13.0458 34.5586 11.7666 33.8727L2.0507 28.6626C1.42958 28.3296 0.74809 28.9924 1.06381 29.6225L6.16686 39.8072C6.7137 40.8986 7.5283 41.8335 8.53451 42.5247L10.6309 43.9646C12.0496 44.9391 13.9589 44.7767 15.1927 43.5767L15.2863 43.4856C15.4222 43.3535 15.6788 43.4438 15.6788 43.6334V55.7713C11.6215 57.0454 8.67849 60.8358 8.67849 65.3136V69.3136C8.67849 69.8659 9.1262 70.3136 9.67849 70.3136H13.6784V76.8136C13.6784 77.642 14.35 78.3136 15.1784 78.3136C16.0068 78.3136 16.6784 77.642 16.6784 76.8136V70.3136H20.6784V76.8136C20.6784 77.642 21.35 78.3136 22.1784 78.3136C23.0068 78.3136 23.6784 77.642 23.6784 76.8136V70.3136H27.6785C28.2308 70.3136 28.6785 69.8659 28.6785 69.3136V65.3136C28.6785 60.4758 25.2431 56.4403 20.6788 55.5137V23.6956C20.6788 23.2183 21.021 22.8176 21.4676 22.6492C21.8187 22.5169 22.1589 22.3434 22.481 22.1283L25.5042 20.11C27.1759 18.994 28.4725 17.4001 29.2249 15.5361L34.9393 1.37912C35.3046 0.474075 34.2898 -0.364617 33.4697 0.164572L20.215 8.71784Z" clip-rule="evenodd"/></mask><path fill="#F7A501" fill-opacity=".4" fill-rule="evenodd" d="M20.215 8.71784C18.7946 9.63441 17.6298 10.8961 16.8293 12.385L15.1616 15.487C14.2511 17.1805 14.407 19.2025 15.4657 20.718C15.597 20.9059 15.6788 21.1261 15.6788 21.3553V36.6764C15.6788 37.1865 14.9946 37.354 14.759 36.9016C14.0886 35.6141 13.0458 34.5586 11.7666 33.8727L2.0507 28.6626C1.42958 28.3296 0.74809 28.9924 1.06381 29.6225L6.16686 39.8072C6.7137 40.8986 7.5283 41.8335 8.53451 42.5247L10.6309 43.9646C12.0496 44.9391 13.9589 44.7767 15.1927 43.5767L15.2863 43.4856C15.4222 43.3535 15.6788 43.4438 15.6788 43.6334V55.7713C11.6215 57.0454 8.67849 60.8358 8.67849 65.3136V69.3136C8.67849 69.8659 9.1262 70.3136 9.67849 70.3136H13.6784V76.8136C13.6784 77.642 14.35 78.3136 15.1784 78.3136C16.0068 78.3136 16.6784 77.642 16.6784 76.8136V70.3136H20.6784V76.8136C20.6784 77.642 21.35 78.3136 22.1784 78.3136C23.0068 78.3136 23.6784 77.642 23.6784 76.8136V70.3136H27.6785C28.2308 70.3136 28.6785 69.8659 28.6785 69.3136V65.3136C28.6785 60.4758 25.2431 56.4403 20.6788 55.5137V23.6956C20.6788 23.2183 21.021 22.8176 21.4676 22.6492C21.8187 22.5169 22.1589 22.3434 22.481 22.1283L25.5042 20.11C27.1759 18.994 28.4725 17.4001 29.2249 15.5361L34.9393 1.37912C35.3046 0.474075 34.2898 -0.364617 33.4697 0.164572L20.215 8.71784Z" clip-rule="evenodd"/><path fill="#F7A501" fill-opacity=".8" d="M16.8293 12.385L18.1505 13.0953L18.1505 13.0953L16.8293 12.385ZM20.215 8.71784L21.0283 9.9782L21.0283 9.9782L20.215 8.71784ZM15.1616 15.487L16.4827 16.1973L16.4827 16.1973L15.1616 15.487ZM15.4657 20.718L14.2361 21.577L14.2361 21.577L15.4657 20.718ZM14.759 36.9016L13.4285 37.5943L13.4285 37.5943L14.759 36.9016ZM11.7666 33.8727L11.0577 35.1946L11.0577 35.1946L11.7666 33.8727ZM2.0507 28.6626L1.34183 29.9846L1.34183 29.9846L2.0507 28.6626ZM1.06381 29.6225L-0.277261 30.2945L-0.277261 30.2945L1.06381 29.6225ZM6.16686 39.8072L7.50794 39.1352L7.50794 39.1352L6.16686 39.8072ZM8.53451 42.5247L7.68524 43.7611L7.68524 43.7611L8.53451 42.5247ZM10.6309 43.9646L9.78164 45.201L9.78164 45.201L10.6309 43.9646ZM15.1927 43.5767L14.1468 42.5014L14.1468 42.5014L15.1927 43.5767ZM15.2863 43.4856L16.3321 44.5609L16.3322 44.5609L15.2863 43.4856ZM15.6788 55.7713L16.1283 57.2024L17.1788 56.8724V55.7713H15.6788ZM13.6784 70.3136H15.1784V68.8136H13.6784V70.3136ZM16.6784 70.3136V68.8136H15.1784V70.3136H16.6784ZM20.6784 70.3136H22.1784V68.8136H20.6784V70.3136ZM23.6784 70.3136V68.8136H22.1784V70.3136H23.6784ZM20.6788 55.5137H19.1788V56.7397L20.3804 56.9837L20.6788 55.5137ZM21.4676 22.6492L20.9386 21.2456L20.9386 21.2456L21.4676 22.6492ZM22.481 22.1283L21.6482 20.8808L21.6482 20.8808L22.481 22.1283ZM25.5042 20.11L24.6714 18.8625L24.6714 18.8625L25.5042 20.11ZM29.2249 15.5361L27.8339 14.9747L29.2249 15.5361ZM34.9393 1.37912L33.5483 0.817662L33.5483 0.817665L34.9393 1.37912ZM33.4697 0.164572L32.6564 -1.09579L32.6564 -1.09579L33.4697 0.164572ZM18.1505 13.0953C18.8309 11.8297 19.821 10.7573 21.0283 9.9782L19.4017 7.45747C17.7682 8.51153 16.4287 9.96247 15.5081 11.6747L18.1505 13.0953ZM16.4827 16.1973L18.1505 13.0953L15.5081 11.6747L13.8404 14.7767L16.4827 16.1973ZM16.6954 19.859C15.9539 18.7975 15.8459 17.3818 16.4827 16.1973L13.8404 14.7767C12.6563 16.9792 12.8601 19.6074 14.2361 21.577L16.6954 19.859ZM17.1788 21.3553C17.1788 20.7658 16.9697 20.2515 16.6954 19.8589L14.2361 21.577C14.2244 21.5602 14.1788 21.4863 14.1788 21.3553H17.1788ZM17.1788 36.6764V21.3553H14.1788V36.6764H17.1788ZM13.4285 37.5943C14.389 39.4388 17.1788 38.756 17.1788 36.6764H14.1788C14.1788 35.617 15.6001 35.2691 16.0894 36.2088L13.4285 37.5943ZM11.0577 35.1946C12.0712 35.7381 12.8974 36.5743 13.4285 37.5943L16.0894 36.2088C15.2798 34.6539 14.0204 33.3792 12.4755 32.5507L11.0577 35.1946ZM1.34183 29.9846L11.0577 35.1946L12.4755 32.5507L2.75957 27.3407L1.34183 29.9846ZM2.40489 28.9506C2.74498 29.6293 2.0109 30.3433 1.34183 29.9846L2.75957 27.3407C0.84825 26.3158 -1.2488 28.3555 -0.277261 30.2945L2.40489 28.9506ZM7.50794 39.1352L2.40489 28.9506L-0.277261 30.2945L4.82579 40.4791L7.50794 39.1352ZM9.38379 41.2882C8.58658 40.7406 7.94119 39.9999 7.50794 39.1352L4.82578 40.4791C5.48622 41.7972 6.47001 42.9264 7.68524 43.7611L9.38379 41.2882ZM11.4802 42.7282L9.38379 41.2882L7.68524 43.7611L9.78164 45.201L11.4802 42.7282ZM14.1468 42.5014C13.4256 43.2029 12.3095 43.2978 11.4802 42.7282L9.78164 45.201C11.7897 46.5803 14.4922 46.3505 16.2385 44.652L14.1468 42.5014ZM14.2404 42.4104L14.1468 42.5014L16.2385 44.652L16.3321 44.5609L14.2404 42.4104ZM17.1788 43.6334C17.1788 42.7687 16.578 42.2242 16.0499 42.0306C15.5326 41.8409 14.7966 41.8695 14.2404 42.4104L16.3322 44.5609C15.9119 44.9697 15.3721 44.9773 15.0171 44.8472C14.6514 44.7131 14.1788 44.3085 14.1788 43.6334H17.1788ZM17.1788 55.7713V43.6334H14.1788V55.7713H17.1788ZM10.1785 65.3136C10.1785 61.5097 12.6782 58.2858 16.1283 57.2024L15.2294 54.3402C10.5649 55.805 7.17849 60.1619 7.17849 65.3136H10.1785ZM10.1785 69.3136V65.3136H7.17849V69.3136H10.1785ZM9.67849 68.8136C9.95463 68.8136 10.1785 69.0374 10.1785 69.3136H7.17849C7.17849 70.6943 8.29778 71.8136 9.67849 71.8136V68.8136ZM13.6784 68.8136H9.67849V71.8136H13.6784V68.8136ZM15.1784 76.8136V70.3136H12.1784V76.8136H15.1784ZM15.1784 76.8136H12.1784C12.1784 78.4704 13.5216 79.8136 15.1784 79.8136V76.8136ZM15.1784 76.8136V79.8136C16.8353 79.8136 18.1784 78.4704 18.1784 76.8136H15.1784ZM15.1784 70.3136V76.8136H18.1784V70.3136H15.1784ZM20.6784 68.8136H16.6784V71.8136H20.6784V68.8136ZM22.1784 76.8136V70.3136H19.1784V76.8136H22.1784ZM22.1784 76.8136H19.1784C19.1784 78.4704 20.5216 79.8136 22.1784 79.8136V76.8136ZM22.1784 76.8136V79.8136C23.8353 79.8136 25.1784 78.4704 25.1784 76.8136H22.1784ZM22.1784 70.3136V76.8136H25.1784V70.3136H22.1784ZM27.6785 68.8136H23.6784V71.8136H27.6785V68.8136ZM27.1785 69.3136C27.1785 69.0374 27.4023 68.8136 27.6785 68.8136V71.8136C29.0592 71.8136 30.1785 70.6943 30.1785 69.3136H27.1785ZM27.1785 65.3136V69.3136H30.1785V65.3136H27.1785ZM20.3804 56.9837C24.2594 57.7712 27.1785 61.2032 27.1785 65.3136H30.1785C30.1785 59.7484 26.2269 55.1095 20.9773 54.0437L20.3804 56.9837ZM19.1788 23.6956V55.5137H22.1788V23.6956H19.1788ZM20.9386 21.2456C20.0456 21.5822 19.1788 22.4585 19.1788 23.6956H22.1788C22.1788 23.8274 22.1293 23.9269 22.0876 23.9802C22.0503 24.0279 22.0165 24.0454 21.9966 24.0529L20.9386 21.2456ZM21.6482 20.8808C21.4219 21.0318 21.1838 21.1532 20.9386 21.2456L21.9966 24.0529C22.4537 23.8806 22.8959 23.6549 23.3139 23.3759L21.6482 20.8808ZM24.6714 18.8625L21.6482 20.8808L23.3139 23.3759L26.3371 21.3576L24.6714 18.8625ZM27.8339 14.9747C27.1944 16.559 26.0923 17.9139 24.6714 18.8625L26.3371 21.3576C28.2596 20.0741 29.7506 18.2411 30.6159 16.0976L27.8339 14.9747ZM33.5483 0.817665L27.8339 14.9747L30.6159 16.0976L36.3302 1.94057L33.5483 0.817665ZM34.2831 1.42494C33.873 1.68952 33.3656 1.2702 33.5483 0.817662L36.3302 1.94057C37.2435 -0.322048 34.7066 -2.41876 32.6564 -1.09579L34.2831 1.42494ZM21.0283 9.9782L34.2831 1.42494L32.6564 -1.09579L19.4017 7.45747L21.0283 9.9782Z" mask="url(#path-1-inside-1)"/></svg>

<svg fill="none" viewBox="0 0 36 79"><mask id="a" fill="#fff"><path fill-rule="evenodd" d="M20.215 8.718a10 10 0 00-3.386 3.667l-1.667 3.102a5.001 5.001 0 00.304 5.231c.131.188.213.408.213.637v15.321c0 .51-.684.678-.92.226a7.22 7.22 0 00-2.992-3.03l-9.716-5.21c-.621-.332-1.303.33-.987.96l5.103 10.185a7.222 7.222 0 002.368 2.718l2.096 1.44a3.61 3.61 0 004.562-.388l.093-.091c.136-.133.393-.042.393.147v12.138a10.004 10.004 0 00-7 9.543v4a1 1 0 001 1h4v6.5a1.5 1.5 0 003 0v-6.5h4v6.5a1.5 1.5 0 003 0v-6.5h4a1 1 0 001-1v-4c0-4.838-3.436-8.874-8-9.8V23.696c0-.478.342-.878.789-1.047a4.996 4.996 0 001.013-.52l3.023-2.019a10 10 0 003.72-4.574L34.94 1.38c.366-.905-.65-1.744-1.47-1.214L20.216 8.718z" clip-rule="evenodd"/></mask><path fill="#F7A501" fill-opacity=".4" fill-rule="evenodd" d="M20.215 8.718a10 10 0 00-3.386 3.667l-1.667 3.102a5.001 5.001 0 00.304 5.231c.131.188.213.408.213.637v15.321c0 .51-.684.678-.92.226a7.22 7.22 0 00-2.992-3.03l-9.716-5.21c-.621-.332-1.303.33-.987.96l5.103 10.185a7.222 7.222 0 002.368 2.718l2.096 1.44a3.61 3.61 0 004.562-.388l.093-.091c.136-.133.393-.042.393.147v12.138a10.004 10.004 0 00-7 9.543v4a1 1 0 001 1h4v6.5a1.5 1.5 0 003 0v-6.5h4v6.5a1.5 1.5 0 003 0v-6.5h4a1 1 0 001-1v-4c0-4.838-3.436-8.874-8-9.8V23.696c0-.478.342-.878.789-1.047a4.996 4.996 0 001.013-.52l3.023-2.019a10 10 0 003.72-4.574L34.94 1.38c.366-.905-.65-1.744-1.47-1.214L20.216 8.718z" clip-rule="evenodd"/><path fill="#F7A501" fill-opacity=".8" d="M16.83 12.385l1.32.71-1.32-.71zm3.385-3.667l.813 1.26-.813-1.26zm-5.053 6.769l1.32.71-1.32-.71zm.304 5.231l-1.23.859 1.23-.859zm-.707 16.184l-1.33.692 1.33-.692zm-2.992-3.03l-.71 1.323.71-1.322zm-9.716-5.21l-.71 1.323.71-1.322zm-.987.96l-1.341.672 1.34-.672zm5.103 10.185l1.34-.672-1.34.672zm2.368 2.718l-.85 1.236.85-1.236zm2.096 1.44L9.78 45.2l.85-1.236zm4.562-.388L14.147 42.5l1.046 1.076zm.093-.091l1.046 1.075-1.046-1.075zm.393 12.285l.45 1.431 1.05-.33v-1.1h-1.5zm-2 14.543h1.5v-1.5h-1.5v1.5zm3 0v-1.5h-1.5v1.5h1.5zm4 0h1.5v-1.5h-1.5v1.5zm3 0v-1.5h-1.5v1.5h1.5zm-3-14.8h-1.5v1.226l1.201.244.299-1.47zm.789-32.865l-.53-1.403.53 1.403zm1.013-.52l-.833-1.248.833 1.247zm3.023-2.019l-.833-1.247.833 1.247zm3.72-4.574l-1.39-.561 1.39.561zM34.94 1.38L33.55.818l1.39.561zM33.47.165l-.813-1.26.814 1.26zm-15.32 12.93a8.5 8.5 0 012.878-3.117l-1.626-2.52a11.5 11.5 0 00-3.894 4.217l2.643 1.42zm-1.667 3.102l1.668-3.102-2.643-1.42-1.668 3.102 2.643 1.42zm.212 3.662a3.501 3.501 0 01-.212-3.662l-2.643-1.42a6.501 6.501 0 00.396 6.8l2.46-1.718zm.484 1.496c0-.59-.21-1.104-.484-1.496l-2.459 1.718a.393.393 0 01-.057-.222h3zm0 15.321v-15.32h-3v15.32h3zm-3.75.918c.96 1.845 3.75 1.162 3.75-.918h-3c0-1.059 1.421-1.407 1.91-.467l-2.66 1.385zm-2.371-2.4a5.721 5.721 0 012.37 2.4l2.661-1.385a8.721 8.721 0 00-3.613-3.658l-1.418 2.644zm-9.716-5.21l9.716 5.21 1.418-2.643-9.716-5.21-1.418 2.644zm1.063-1.033c.34.678-.394 1.392-1.063 1.034L2.76 27.34c-1.912-1.024-4.01 1.015-3.037 2.954l2.682-1.343zm5.103 10.184L2.405 28.951l-2.682 1.343L4.826 40.48l2.682-1.344zm1.876 2.153a5.721 5.721 0 01-1.876-2.153L4.826 40.48a8.721 8.721 0 002.86 3.282l1.698-2.473zm2.096 1.44l-2.096-1.44-1.699 2.473 2.097 1.44 1.698-2.473zm2.667-.227a2.11 2.11 0 01-2.667.227l-1.698 2.473a5.11 5.11 0 006.456-.549l-2.091-2.15zm.093-.09l-.093.09 2.091 2.151.094-.091-2.092-2.15zm2.939 1.222c0-.864-.601-1.409-1.13-1.602a1.736 1.736 0 00-1.809.38l2.092 2.15c-.42.409-.96.416-1.315.286a1.292 1.292 0 01-.838-1.214h3zm0 12.138V43.633h-3v12.138h3zm-7 9.543c0-3.804 2.5-7.028 5.95-8.112l-.9-2.862c-4.664 1.465-8.05 5.822-8.05 10.974h3zm0 4v-4h-3v4h3zm-.5-.5a.5.5 0 01.5.5h-3a2.5 2.5 0 002.5 2.5v-3zm4 0h-4v3h4v-3zm1.5 8v-6.5h-3v6.5h3zm0 0h-3a3 3 0 003 3v-3zm0 0v3a3 3 0 003-3h-3zm0-6.5v6.5h3v-6.5h-3zm5.5-1.5h-4v3h4v-3zm1.5 8v-6.5h-3v6.5h3zm0 0h-3a3 3 0 003 3v-3zm0 0v3a3 3 0 003-3h-3zm0-6.5v6.5h3v-6.5h-3zm5.5-1.5h-4v3h4v-3zm-.5.5a.5.5 0 01.5-.5v3a2.5 2.5 0 002.5-2.5h-3zm0-4v4h3v-4h-3zm-6.799-8.33a8.503 8.503 0 016.799 8.33h3c0-5.566-3.952-10.204-9.202-11.27l-.597 2.94zm-1.2-33.288v31.818h3V23.696h-3zm1.76-2.45c-.893.336-1.76 1.213-1.76 2.45h3c0 .131-.05.23-.091.284a.21.21 0 01-.091.073l-1.058-2.807zm.71-.365a3.504 3.504 0 01-.71.365l1.058 2.807a6.49 6.49 0 001.317-.677l-1.666-2.495zm3.022-2.018l-3.023 2.018 1.666 2.495 3.023-2.018-1.666-2.495zm3.163-3.888a8.5 8.5 0 01-3.163 3.888l1.666 2.495a11.5 11.5 0 004.279-5.26l-2.782-1.123zM33.548.818l-5.714 14.157 2.782 1.123L36.33 1.94 33.548.818zm.735.607a.5.5 0 01-.735-.607L36.33 1.94c.913-2.263-1.623-4.36-3.674-3.037l1.627 2.52zM21.028 9.978l13.255-8.553-1.627-2.52-13.254 8.552 1.626 2.521z" mask="url(#a)"/></svg>
